X:1
T:Our Gifts to Jesus
T:Our Gifts to Jesus
T:Charles Hutchinson Gabriel
T:Ada Blenkhorn, 1896
T:Public Domain Courtesy of the Cyber Hymnal™
T:Public Domain Courtesy of the Cyber Hymnal™
C:Charles Hutchinson Gabriel
Z:Public Domain
Z:Courtesy of the Cyber Hymnal™
%%score ( 1 2 ) ( 3 4 )
L:1/8
Q:1/4=85
M:2/4
K:F
V:1 treble 
V:2 treble 
V:3 bass 
V:4 bass 
V:1
 C | AA GC | G2 FC | FG FD [A,E]3 C | BB ^FG | A2 GE | GF ED | C2 z C | AA GC | G2 FC | %10
w: 1.~What|can we give to|Je- sus That|He would prize the most? That|would, when known in|Hea- ven, Re-|joice the an- gel|host? Not|gold, nor pre- cious|jew- els, Could|
w: 2.~We|may not gov- ern|rich- es, Our|tal- ents may be few, Yet|sure- ly there is|some- thing That|we for Him may|do. He|owns the love- ly|flow- ers, The|
w: 3.~We|know that He will|take us, For|He has told us so; He’ll|pu- ri- fy and|cleanse us, And|wash us white as|snow. He’ll|al- ways dwell with-|in us, And|
 FF [B,G][CA] | [DB]3 D | BB AG | [CA]2 CC | DF EG | [A,F]3 x ||"^Refrain" [A,C] x2 | %17
w: such an off- ering|be; These|were a gift un-|wor- thy Of|such a friend as|He.||
w: earth, and Heav’n a-|bove; He|asks us not for|rich- es— He|on- ly wants our|love.|We’ll|
w: make us sweet and|mild, Just|like the gen- tle|Sav- ior, The|sin- less ho- ly|Child.||
 [Ac][Ac] [Bd][Ac] | [Ac]2 [GB]C | [GB][GB] [Ac][GB] | [FA]3 [FA] | [Fc][FA] [EG][_EF] | %22
w: |||||
w: give our hearts to|Je- sus; No|gift that we could|bring Would|be a bet- ter|
w: |||||
 [DB]2 [B,D][DF] | C[CB] [CA][CG] | [CF]3 x |] x3 |] %26
w: ||||
w: pre- sent For|Christ, the child- ren’s|king.||
w: ||||
V:2
 x | C2 B,2 | A,4 | A,4 x4 | C4 | C4 | =B,4 | C2 x2 | C2 B,2 | A,4 | A,2 x2 | x4 | D4 | x2 A,2 | %14
 B,4 | x4 || x3 | x4 | x3 C | x4 | x4 | x4 | x4 | C x3 | x4 |] x3 |] %26
V:3
 z | F,,C, E,C, | (F,,C,) F,C, | F,,C, F,C, x4 | (G,,C, E,) z | C,,C, E,C, | (E,,C,) E,C, | %7
 G,,A, G,F, | (C,B,, A,,)G,, | F,,C, E,C, | (F,,C,) F,C, | F,,C, F,C, | (B,,D, F,) z | B,,D, F,D, | %14
 (F,,C,) F,C, | B,,D, C,2 || (F,,C, F,,) | F, x3 | F,F, F,F, | [C,C]2 [C,C][C,C] | %20
 [C,C][C,C] [C,C][C,C] | [F,C]3 [F,C] | [F,A,][F,,C] [G,,C][A,,C] | [B,,B,]2 [B,,F,][B,,B,] | %24
 [C,A,][C,G,] [C,F,][C,B,] |] [F,A,]3 |] %26
V:4
 x | F,,4 | F,,4 | F,,4 x4 | G,,3 x | C,,4 | E,,4 | G,,4 | x4 | F,,4 | F,,4 | F,,4 | x4 | B,,4 | %14
 F,,4 | B,,2 C,D,, || x3 | F, x3 | F,F, F,F, | x4 | x4 | x4 | x4 | x4 | x4 |] x3 |] %26

